X: 2575
T: Ballymesh, The
R: reel
M: 4/4
K: Bminor
|:B3 c dcBd|ce e/e/e fecA|B3 c dcBd|cBAF EFAc|
B3 c dcBd|ce e/e/e fece|aefe cBAF|1 EFAB cB~BA:|2 EFAB c^dea||
|:f2 ^df Bfdf|ec c/c/c Ac c/c/c|=d2 dc BFFD|EB~BA F3 e|
f2 ^df Bfdf|ec c/c/c ef^ga|b2 af ^ge e/e/e|1 ^dA A/A/A B2 Be:|2 =dA A/A/A B4||

